resources/haticons/SVG/grid_view.svg

<!-- Generated by IcoMoon.io -->
<svg version="1.1" xmlns="http://www.w3.org/2000/svg" width="24" height="24" viewBox="0 0 24 24">
<title>grid_view</title>
<path d="M18.984 18.984v-3.984h-3.984v3.984h3.984zM12.984 12.984h8.016v8.016h-8.016v-8.016zM18.984 9v-3.984h-3.984v3.984h3.984zM12.984 3h8.016v8.016h-8.016v-8.016zM9 18.984v-3.984h-3.984v3.984h3.984zM3 12.984h8.016v8.016h-8.016v-8.016zM9 9v-3.984h-3.984v3.984h3.984zM3 3h8.016v8.016h-8.016v-8.016z"></path>
</svg>

<svg xmlns="http://www.w3.org/2000/svg" width="24" height="24"><path d="M18.984 18.984V15H15v3.984h3.984zm-6-6H21V21h-8.016v-8.016zm6-3.984V5.016H15V9h3.984zm-6-6H21v8.016h-8.016V3zM9 18.984V15H5.016v3.984H9zm-6-6h8.016V21H3v-8.016zM9 9V5.016H5.016V9H9zM3 3h8.016v8.016H3V3z"/></svg>
